X:28
T:Cease Your Funning . ET.28
M:C
L:1/8
Q:1/4=120
S:Eliza Tennyson MS, Lincolnshire,1822
R:Air
O:England;Lincolnshire;Somersby
Z:vmp.R.Greig 2012 <http://www.village-music-project.org.uk>
K:A
A2e2cAz2|d2B2GEz2|c2A2FDz2|E2G2A2z2|!
A2e2cAz2|d2B2GEz2|c2A2FDz2E2G2A2z2||!
A2a2aez2|~A2f2fdz2|E2e2eAz2|F e B H^de2z2|!
A2{^d}e2c<Az2|d2B2G<Ez2|c2A2F<Dz2|E2GA2z2|]

